assets/ai/ai-researcherid-square.svg

<svg xmlns="http://www.w3.org/2000/svg" width="100%" height="100%" viewBox="-75.52 -43.52 599.04 599.04"><path d="M 48 32 C 21.5 32 0 53.5 0 80 L 0 432 C 0 458.5 21.5 480 48 480 L 400 480 C 426.5 480 448 458.5 448 432 L 448 80 C 448 53.5 426.5 32 400 32 L 48 32 z M 106.13281 96 L 217.67969 96 C 246.19953 96 266.57414 98.880056 278.80078 104.62695 C 291.02741 110.37389 301.06644 120.34656 308.91992 134.5332 C 316.77341 148.71982 320.70703 165.70769 320.70703 185.50781 C 320.70703 210.53459 314.70674 230.693 302.69336 245.97266 C 290.68 261.25232 273.62582 270.85362 251.50586 274.78711 C 262.85239 282.93369 272.23946 291.8526 279.66602 301.51953 C 287.09258 311.19954 297.20005 328.54604 310.01367 353.58594 L 341.86719 416 L 278.66602 416 L 240.3457 346.37305 C 226.54589 321.19971 217.17321 305.43918 212.22656 299.11914 C 207.27991 292.79909 202.03912 288.4274 196.50586 286.02734 C 190.97258 283.62729 182.1075 282.42773 169.88086 282.42773 L 158.94727 282.42773 L 158.94727 416 L 106.13281 416 L 106.13281 96 z M 158.94727 150.13281 L 158.94727 231.33398 L 198.24023 231.33398 C 222.25347 231.33398 237.53327 230.28038 244.08008 228.17383 C 250.6269 226.06726 255.93363 221.81338 260.01367 215.40039 C 264.09372 209.00049 266.11914 200.48057 266.11914 189.86719 C 266.11914 179.68039 264.08058 171.49359 260.01367 165.30664 C 255.94675 159.11967 250.41265 154.86655 243.42578 152.5332 C 238.47913 150.93306 224.14589 150.13281 200.42578 150.13281 L 158.94727 150.13281 z"/></svg>

<svg xmlns="http://www.w3.org/2000/svg" width="100%" height="100%" viewBox="-75.52 -43.52 599.04 599.04"><path d="M48 32C21.5 32 0 53.5 0 80v352c0 26.5 21.5 48 48 48h352c26.5 0 48-21.5 48-48V80c0-26.5-21.5-48-48-48H48zm58.133 64H217.68c28.52 0 48.894 2.88 61.12 8.627 12.227 5.747 22.266 15.72 30.12 29.906 7.853 14.187 11.787 31.175 11.787 50.975 0 25.027-6 45.185-18.014 60.465-12.013 15.28-29.067 24.88-51.187 28.814 11.346 8.147 20.733 17.066 28.16 26.733 7.427 9.68 17.534 27.026 30.348 52.066L341.867 416h-63.201l-38.32-69.627c-13.8-25.173-23.173-40.934-28.12-47.254-4.946-6.32-10.187-10.692-15.72-13.092-5.533-2.4-14.399-3.6-26.625-3.6h-10.934V416h-52.814V96zm52.814 54.133v81.201h39.293c24.013 0 39.293-1.054 45.84-3.16 6.547-2.107 11.854-6.36 15.934-12.774 4.08-6.4 6.105-14.92 6.105-25.533 0-10.187-2.038-18.373-6.105-24.56-4.067-6.187-9.601-10.44-16.588-12.774-4.947-1.6-19.28-2.4-43-2.4h-41.479z"/></svg>
